assets/icons/informations/check_circle_outline.svg

<svg viewBox="0 0 24 24" xmlns="http://www.w3.org/2000/svg">
<path d="M10.6002 13.4002L8.6002 11.4002C8.36686 11.1502 8.06686 11.0292 7.7002 11.0372C7.33353 11.0459 7.0252 11.1752 6.7752 11.4252C6.5252 11.6752 6.4002 11.9835 6.4002 12.3502C6.4002 12.7169 6.5252 13.0252 6.7752 13.2752L9.6752 16.1752C9.9252 16.4252 10.2335 16.5502 10.6002 16.5502C10.9669 16.5502 11.2752 16.4252 11.5252 16.1752L17.3002 10.4002C17.5502 10.1502 17.6712 9.84586 17.6632 9.4872C17.6545 9.1292 17.5252 8.8252 17.2752 8.5752C17.0252 8.3252 16.7169 8.2002 16.3502 8.2002C15.9835 8.2002 15.6752 8.3252 15.4252 8.5752L10.6002 13.4002ZM12.0002 22.8002C10.5002 22.8002 9.09586 22.5169 7.7872 21.9502C6.4792 21.3835 5.33786 20.6129 4.3632 19.6382C3.38786 18.6629 2.61686 17.5209 2.0502 16.2122C1.48353 14.9042 1.2002 13.5002 1.2002 12.0002C1.2002 10.5002 1.48353 9.09186 2.0502 7.7752C2.61686 6.45853 3.38786 5.31286 4.3632 4.3382C5.33786 3.36286 6.4792 2.59586 7.7872 2.0372C9.09586 1.4792 10.5002 1.2002 12.0002 1.2002C13.5002 1.2002 14.9085 1.4792 16.2252 2.0372C17.5419 2.59586 18.6879 3.36286 19.6632 4.3382C20.6379 5.31286 21.4042 6.45853 21.9622 7.7752C22.5209 9.09186 22.8002 10.5002 22.8002 12.0002C22.8002 13.5002 22.5209 14.9042 21.9622 16.2122C21.4042 17.5209 20.6379 18.6629 19.6632 19.6382C18.6879 20.6129 17.5419 21.3835 16.2252 21.9502C14.9085 22.5169 13.5002 22.8002 12.0002 22.8002ZM12.0002 20.1502C14.2669 20.1502 16.1919 19.3585 17.7752 17.7752C19.3585 16.1919 20.1502 14.2669 20.1502 12.0002C20.1502 9.73353 19.3585 7.80853 17.7752 6.22519C16.1919 4.64186 14.2669 3.8502 12.0002 3.8502C9.73353 3.8502 7.80853 4.64186 6.22519 6.22519C4.64186 7.80853 3.8502 9.73353 3.8502 12.0002C3.8502 14.2669 4.64186 16.1919 6.22519 17.7752C7.80853 19.3585 9.73353 20.1502 12.0002 20.1502Z" fill="inherit"/>
</svg>

<svg viewBox="0 0 24 24" xmlns="http://www.w3.org/2000/svg"><path d="m10.6 13.4-2-2c-.2-.2-.5-.4-.9-.4a1.3 1.3 0 0 0-1.3 1.4c0 .3.1.6.4.9l2.9 2.9c.2.2.5.4.9.4s.7-.2 1-.4l5.7-5.8c.3-.2.4-.6.4-1 0-.3-.2-.6-.4-.8-.3-.3-.6-.4-1-.4-.3 0-.6.1-.9.4l-4.8 4.8Zm1.4 9.4a10.5 10.5 0 0 1-7.6-3.2A11 11 0 0 1 1.2 12a10.6 10.6 0 0 1 3.2-7.7A10.8 10.8 0 0 1 16.2 2 10.7 10.7 0 0 1 22 16.2a10.8 10.8 0 0 1-10 6.6Zm0-2.6c2.3 0 4.2-.8 5.8-2.4a7.9 7.9 0 0 0 2.4-5.8c0-2.3-.8-4.2-2.4-5.8A7.9 7.9 0 0 0 12 4c-2.3 0-4.2.7-5.8 2.3A7.9 7.9 0 0 0 4 12c0 2.3.7 4.2 2.3 5.8a7.9 7.9 0 0 0 5.8 2.4Z" fill="inherit"/></svg>
